packages/core/src/svgs/tokens/branded/MAHA.svg

<svg width="24" height="24" viewBox="0 0 24 24" fill="none" xmlns="http://www.w3.org/2000/svg">
<path d="M21.5297 10.5366L17.1261 4.38751C16.9697 4.16405 16.7616 3.98174 16.5194 3.85616C16.2773 3.7306 16.0083 3.66547 15.7355 3.66638C15.1789 3.66638 14.6727 3.9275 14.3443 4.38751L13.8644 5.05698L13.386 4.38751C13.2296 4.16393 13.0212 3.98156 12.7791 3.85598C12.5368 3.73039 12.2677 3.66534 11.9948 3.66638C11.4381 3.66638 10.9326 3.9275 10.6042 4.38751L10.1309 5.04755L9.65696 4.38751C9.50036 4.16422 9.29214 3.98204 9.05004 3.85649C8.80792 3.73092 8.53907 3.66572 8.26633 3.66638C7.71187 3.66638 7.20351 3.9275 6.87517 4.38751L2.46945 10.5366C2.16414 10.9635 2 11.4752 2 12.0001C2 12.5248 2.16414 13.0365 2.46945 13.4634L6.87517 19.6126C7.03203 19.8358 7.24044 20.018 7.48273 20.1435C7.72502 20.2691 7.99401 20.3343 8.26689 20.3336C8.82358 20.3336 9.32971 20.0726 9.65748 19.6126L12.0004 16.3391L12.4831 17.0152C12.4853 17.0175 12.4877 17.0225 12.4877 17.0225L14.3433 19.6126C14.4999 19.8356 14.7079 20.0175 14.9498 20.1431C15.1917 20.2686 15.4602 20.3339 15.7327 20.3336C16.2895 20.3336 16.7956 20.0726 17.1234 19.6126L21.5268 13.4634C21.8341 13.0374 21.9996 12.5256 22 12.0003C22.0004 11.4752 21.8361 10.9631 21.5297 10.5366ZM11.307 4.91087C11.3846 4.80071 11.4877 4.71088 11.6074 4.64898C11.7271 4.5871 11.86 4.55496 11.9948 4.5553C12.2699 4.5553 12.522 4.68475 12.6837 4.91087L13.326 5.80868L11.9999 7.65875L10.6686 5.79923L11.307 4.91087ZM8.95469 19.0869C8.87694 19.1973 8.77371 19.2872 8.65377 19.3491C8.53383 19.411 8.40074 19.443 8.26578 19.4425C8.13099 19.4429 7.99813 19.4108 7.8784 19.3488C7.75867 19.287 7.65562 19.1971 7.57797 19.0869L3.17446 12.9379C2.9785 12.6639 2.87312 12.3357 2.87312 11.9989C2.87312 11.6621 2.9785 11.3339 3.17446 11.06L7.57742 4.91087C7.65518 4.80055 7.75841 4.71064 7.87834 4.64874C7.99827 4.58684 8.13137 4.55478 8.26633 4.5553C8.54078 4.5553 8.79303 4.68475 8.95469 4.91087L9.59253 5.80146L6.20069 10.5366C5.89517 10.9635 5.73108 11.4754 5.73148 12.0003C5.73187 12.5254 5.89674 13.037 6.20293 13.4634L6.46182 13.819L8.73523 17.013C9.02414 17.4185 9.45357 17.6686 9.93192 17.7225L8.95469 19.0869ZM10.8142 16.4924C10.6504 16.7185 10.4008 16.848 10.1259 16.848C9.99103 16.8484 9.85803 16.8164 9.73811 16.7544C9.61833 16.6926 9.51514 16.6026 9.43749 16.4924L7.09962 13.2067H7.09685L6.90072 12.9356C6.70475 12.6617 6.59937 12.3335 6.59937 11.9967C6.59937 11.6599 6.70475 11.3317 6.90072 11.0578L10.1286 6.55093L11.4593 8.41045L9.93866 10.5339C9.63311 10.9609 9.46873 11.4727 9.46873 11.9979C9.46873 12.5229 9.63311 13.0348 9.93866 13.4617L11.4593 15.5846L10.8142 16.4924ZM12.0004 9.16381L13.3588 11.0589C13.5548 11.3328 13.6603 11.6612 13.6603 11.9981C13.6603 12.3349 13.5548 12.6634 13.3588 12.9373L11.9999 14.8335L10.6414 12.939C10.4451 12.665 10.3396 12.3365 10.3396 11.9994C10.3396 11.6625 10.4451 11.334 10.6414 11.06L11.9999 9.16548L12.0004 9.16381ZM14.061 13.4607C14.3665 13.0337 14.5306 12.5219 14.5306 11.997C14.5306 11.4721 14.3665 10.9603 14.061 10.5333L12.5409 8.40989L13.8671 6.55982L17.0878 11.0589C17.2841 11.3334 17.3894 11.6625 17.3889 11.9999C17.3885 12.3374 17.2822 12.6661 17.085 12.9401L16.57 13.6707L14.5644 16.4891C14.4866 16.5994 14.3836 16.6892 14.2637 16.7511C14.1439 16.813 14.0109 16.845 13.8761 16.8447C13.6038 16.8447 13.3565 16.718 13.1926 16.4963L12.5387 15.5841L14.061 13.4607ZM20.828 12.9373L16.4244 19.0864C16.3466 19.1967 16.2434 19.2867 16.1235 19.3485C16.0036 19.4105 15.8705 19.4425 15.7355 19.442C15.6007 19.4423 15.4678 19.4103 15.3482 19.3483C15.2284 19.2865 15.1253 19.1966 15.0477 19.0864L14.0699 17.7219C14.3085 17.6948 14.5386 17.6174 14.745 17.4946C14.9514 17.372 15.1294 17.2069 15.2672 17.0102L16.9905 14.5895L16.9927 14.5919L17.2744 14.1918L17.605 13.7268L17.6028 13.7246L17.79 13.4578C18.0953 13.0309 18.2595 12.5193 18.2595 11.9945C18.2595 11.4696 18.0953 10.9579 17.79 10.5311L14.4055 5.80868L15.0477 4.91031C15.1255 4.80007 15.2285 4.7102 15.3484 4.64831C15.4682 4.58641 15.6012 4.55431 15.7361 4.55474C16.0111 4.55474 16.2628 4.68419 16.4249 4.91031L20.828 11.0589C21.024 11.3328 21.1295 11.6612 21.1295 11.9981C21.1295 12.3349 21.024 12.6634 20.828 12.9373Z" fill="url(#paint0_linear_364_9410)"/>
<path d="M10.1234 17.7336C10.0568 17.7336 9.99168 17.7291 9.92504 17.7225L8.97998 19.0514L9.6939 19.5653L11.4218 17.1446C11.2605 17.3306 11.061 17.4795 10.837 17.5811C10.6129 17.6827 10.3694 17.7349 10.1234 17.7336Z" fill="url(#paint1_linear_364_9410)"/>
<path d="M13.8707 17.7336C13.9374 17.7336 14.0025 17.7286 14.0696 17.7219L15.0141 19.0514L14.3007 19.5653L12.5818 17.1475C12.7414 17.3327 12.9393 17.4812 13.1618 17.5824C13.3844 17.6838 13.6263 17.735 13.8707 17.7336Z" fill="url(#paint2_linear_364_9410)"/>
<path d="M11.4541 15.5802L12.0041 16.3458L11.168 17.4914L10.6179 16.7469L11.4541 15.5802Z" fill="url(#paint3_linear_364_9410)"/>
<path d="M9.58996 5.79924L10.1327 6.55816L8.17383 9.30161L7.49048 8.74992L9.58996 5.79924Z" fill="url(#paint4_linear_364_9410)"/>
<path d="M11.4635 8.41101L11.9968 9.16937L10.7496 10.9306L10.0657 10.3761L11.4635 8.41101Z" fill="url(#paint5_linear_364_9410)"/>
<path d="M13.3262 5.8087L13.8645 6.56262L12.5411 8.40991L12.0022 7.65655L13.3262 5.8087Z" fill="url(#paint6_linear_364_9410)"/>
<defs>
<linearGradient id="paint0_linear_364_9410" x1="5.69123" y1="18.4353" x2="18.5607" y2="5.81979" gradientUnits="userSpaceOnUse">
<stop stop-color="#FF8506"/>
<stop offset="0.581" stop-color="#FD3947"/>
<stop offset="1" stop-color="#FB0078"/>
</linearGradient>
<linearGradient id="paint1_linear_364_9410" x1="17.5219" y1="3.54396" x2="7.78557" y2="19.6117" gradientUnits="userSpaceOnUse">
<stop stop-color="#78005B"/>
<stop offset="0.348" stop-color="#7A025A" stop-opacity="0.652"/>
<stop offset="0.51" stop-color="#820955" stop-opacity="0.49"/>
<stop offset="0.633" stop-color="#8E154E" stop-opacity="0.367"/>
<stop offset="0.737" stop-color="#A12643" stop-opacity="0.263"/>
<stop offset="0.828" stop-color="#B83C36" stop-opacity="0.172"/>
<stop offset="0.911" stop-color="#D65725" stop-opacity="0.089"/>
<stop offset="0.986" stop-color="#F87711" stop-opacity="0.014"/>
<stop offset="1" stop-color="#FF7E0D" stop-opacity="0"/>
</linearGradient>
<linearGradient id="paint2_linear_364_9410" x1="17.5777" y1="17.1013" x2="8.43651" y2="1.72384" gradientUnits="userSpaceOnUse">
<stop stop-color="#FF7E0D" stop-opacity="0"/>
<stop offset="0.009" stop-color="#F97811" stop-opacity="0.013"/>
<stop offset="0.065" stop-color="#D65825" stop-opacity="0.089"/>
<stop offset="0.127" stop-color="#B93D36" stop-opacity="0.173"/>
<stop offset="0.195" stop-color="#A12643" stop-opacity="0.266"/>
<stop offset="0.272" stop-color="#8F154E" stop-opacity="0.371"/>
<stop offset="0.363" stop-color="#820955" stop-opacity="0.495"/>
<stop offset="0.482" stop-color="#7A025A" stop-opacity="0.657"/>
<stop offset="0.734" stop-color="#78005B"/>
</linearGradient>
<linearGradient id="paint3_linear_364_9410" x1="6.40866" y1="17.0584" x2="14.1208" y2="-0.930148" gradientUnits="userSpaceOnUse">
<stop stop-color="#FF7E0D" stop-opacity="0"/>
<stop offset="0.013" stop-color="#F97910" stop-opacity="0.019"/>
<stop offset="0.114" stop-color="#D25427" stop-opacity="0.166"/>
<stop offset="0.219" stop-color="#B1363A" stop-opacity="0.318"/>
<stop offset="0.326" stop-color="#981E48" stop-opacity="0.473"/>
<stop offset="0.438" stop-color="#860D53" stop-opacity="0.634"/>
<stop offset="0.555" stop-color="#7B0359" stop-opacity="0.805"/>
<stop offset="0.69" stop-color="#78005B"/>
</linearGradient>
<linearGradient id="paint4_linear_364_9410" x1="2.8203" y1="18.2345" x2="13.8361" y2="1.06153" gradientUnits="userSpaceOnUse">
<stop stop-color="#FF4630" stop-opacity="0"/>
<stop offset="0.572" stop-color="#B31F48" stop-opacity="0.572"/>
<stop offset="1" stop-color="#78005B"/>
</linearGradient>
<linearGradient id="paint5_linear_364_9410" x1="3.78925" y1="17.8461" x2="14.0539" y2="2.09414" gradientUnits="userSpaceOnUse">
<stop stop-color="#FF4630" stop-opacity="0"/>
<stop offset="0.572" stop-color="#B31F48" stop-opacity="0.572"/>
<stop offset="1" stop-color="#78005B"/>
</linearGradient>
<linearGradient id="paint6_linear_364_9410" x1="12.099" y1="7.95966" x2="13.8002" y2="6.29182" gradientUnits="userSpaceOnUse">
<stop stop-color="#FF4630" stop-opacity="0"/>
<stop offset="0.572" stop-color="#B31F48" stop-opacity="0.572"/>
<stop offset="1" stop-color="#78005B"/>
</linearGradient>
</defs>
</svg>

<svg xmlns="http://www.w3.org/2000/svg" width="24" height="24" fill="none" viewBox="0 0 24 24">
    <path fill="url(#MAHA__a)" d="m21.53 10.537-4.404-6.15a1.69 1.69 0 0 0-1.39-.72 1.69 1.69 0 0 0-1.392.72l-.48.67-.478-.67a1.69 1.69 0 0 0-1.391-.72 1.69 1.69 0 0 0-1.39.72l-.474.66-.474-.66a1.7 1.7 0 0 0-1.39-.72c-.555 0-1.063.26-1.392.72l-4.406 6.15a2.52 2.52 0 0 0 0 2.926l4.406 6.15a1.7 1.7 0 0 0 1.392.72c.557 0 1.063-.26 1.39-.72L12 16.339l.483.676.005.008 1.855 2.59a1.7 1.7 0 0 0 1.39.72c.556 0 1.063-.26 1.39-.72l4.404-6.15a2.5 2.5 0 0 0 .003-2.926M11.307 4.91a.84.84 0 0 1 .688-.356.84.84 0 0 1 .689.356l.642.898L12 7.659l-1.331-1.86zM8.955 19.087a.84.84 0 0 1-.69.355.84.84 0 0 1-.687-.355l-4.404-6.15a1.61 1.61 0 0 1 0-1.877l4.403-6.15a.84.84 0 0 1 .69-.355.84.84 0 0 1 .688.356l.638.89L6.2 10.537a2.51 2.51 0 0 0 .002 2.926l.259.356 2.273 3.194c.29.406.719.656 1.197.71zm1.86-2.595a.842.842 0 0 1-1.378 0L7.1 13.207h-.003l-.196-.271a1.61 1.61 0 0 1 0-1.878l3.228-4.507 1.33 1.86-1.52 2.123a2.52 2.52 0 0 0 0 2.928l1.52 2.123zM12 9.164l1.359 1.895a1.61 1.61 0 0 1 0 1.878l-1.36 1.897-1.358-1.895a1.61 1.61 0 0 1 0-1.879zm2.061 4.297a2.515 2.515 0 0 0 0-2.928l-1.52-2.123 1.326-1.85 3.22 4.499a1.61 1.61 0 0 1-.002 1.881l-.515.73-2.006 2.82a.84.84 0 0 1-.688.355.84.84 0 0 1-.683-.349l-.654-.912zm6.767-.524-4.404 6.15a.84.84 0 0 1-.688.355.84.84 0 0 1-.688-.356l-.978-1.364a1.7 1.7 0 0 0 1.197-.712l1.724-2.42.002.002.281-.4.331-.465-.002-.002.187-.267a2.515 2.515 0 0 0 0-2.927L14.406 5.81l.642-.899a.84.84 0 0 1 .688-.355.84.84 0 0 1 .689.355l4.403 6.149a1.61 1.61 0 0 1 0 1.878"/>
    <path fill="url(#MAHA__b)" d="M10.123 17.734q-.098 0-.198-.012l-.945 1.33.714.513 1.728-2.42a1.7 1.7 0 0 1-1.299.589"/>
    <path fill="url(#MAHA__c)" d="M13.87 17.734q.1 0 .2-.012l.944 1.33-.713.513-1.72-2.418a1.69 1.69 0 0 0 1.29.587"/>
    <path fill="url(#MAHA__d)" d="m11.454 15.58.55.766-.836 1.145-.55-.744z"/>
    <path fill="url(#MAHA__e)" d="m9.59 5.8.543.758-1.96 2.744-.683-.552z"/>
    <path fill="url(#MAHA__f)" d="m11.464 8.411.533.758-1.247 1.762-.684-.555z"/>
    <path fill="url(#MAHA__g)" d="m13.326 5.809.538.754-1.323 1.847-.539-.753z"/>
    <defs>
        <linearGradient id="MAHA__a" x1="5.691" x2="18.561" y1="18.435" y2="5.82" gradientUnits="userSpaceOnUse">
            <stop stop-color="#FF8506"/>
            <stop offset=".581" stop-color="#FD3947"/>
            <stop offset="1" stop-color="#FB0078"/>
        </linearGradient>
        <linearGradient id="MAHA__b" x1="17.522" x2="7.786" y1="3.544" y2="19.612" gradientUnits="userSpaceOnUse">
            <stop stop-color="#78005B"/>
            <stop offset=".348" stop-color="#7A025A" stop-opacity=".652"/>
            <stop offset=".51" stop-color="#820955" stop-opacity=".49"/>
            <stop offset=".633" stop-color="#8E154E" stop-opacity=".367"/>
            <stop offset=".737" stop-color="#A12643" stop-opacity=".263"/>
            <stop offset=".828" stop-color="#B83C36" stop-opacity=".172"/>
            <stop offset=".911" stop-color="#D65725" stop-opacity=".089"/>
            <stop offset=".986" stop-color="#F87711" stop-opacity=".014"/>
            <stop offset="1" stop-color="#FF7E0D" stop-opacity="0"/>
        </linearGradient>
        <linearGradient id="MAHA__c" x1="17.578" x2="8.437" y1="17.101" y2="1.724" gradientUnits="userSpaceOnUse">
            <stop stop-color="#FF7E0D" stop-opacity="0"/>
            <stop offset=".009" stop-color="#F97811" stop-opacity=".013"/>
            <stop offset=".065" stop-color="#D65825" stop-opacity=".089"/>
            <stop offset=".127" stop-color="#B93D36" stop-opacity=".173"/>
            <stop offset=".195" stop-color="#A12643" stop-opacity=".266"/>
            <stop offset=".272" stop-color="#8F154E" stop-opacity=".371"/>
            <stop offset=".363" stop-color="#820955" stop-opacity=".495"/>
            <stop offset=".482" stop-color="#7A025A" stop-opacity=".657"/>
            <stop offset=".734" stop-color="#78005B"/>
        </linearGradient>
        <linearGradient id="MAHA__d" x1="6.409" x2="14.121" y1="17.058" y2="-.93" gradientUnits="userSpaceOnUse">
            <stop stop-color="#FF7E0D" stop-opacity="0"/>
            <stop offset=".013" stop-color="#F97910" stop-opacity=".019"/>
            <stop offset=".114" stop-color="#D25427" stop-opacity=".166"/>
            <stop offset=".219" stop-color="#B1363A" stop-opacity=".318"/>
            <stop offset=".326" stop-color="#981E48" stop-opacity=".473"/>
            <stop offset=".438" stop-color="#860D53" stop-opacity=".634"/>
            <stop offset=".555" stop-color="#7B0359" stop-opacity=".805"/>
            <stop offset=".69" stop-color="#78005B"/>
        </linearGradient>
        <linearGradient id="MAHA__e" x1="2.82" x2="13.836" y1="18.235" y2="1.062" gradientUnits="userSpaceOnUse">
            <stop stop-color="#FF4630" stop-opacity="0"/>
            <stop offset=".572" stop-color="#B31F48" stop-opacity=".572"/>
            <stop offset="1" stop-color="#78005B"/>
        </linearGradient>
        <linearGradient id="MAHA__f" x1="3.789" x2="14.054" y1="17.846" y2="2.094" gradientUnits="userSpaceOnUse">
            <stop stop-color="#FF4630" stop-opacity="0"/>
            <stop offset=".572" stop-color="#B31F48" stop-opacity=".572"/>
            <stop offset="1" stop-color="#78005B"/>
        </linearGradient>
        <linearGradient id="MAHA__g" x1="12.099" x2="13.8" y1="7.96" y2="6.292" gradientUnits="userSpaceOnUse">
            <stop stop-color="#FF4630" stop-opacity="0"/>
            <stop offset=".572" stop-color="#B31F48" stop-opacity=".572"/>
            <stop offset="1" stop-color="#78005B"/>
        </linearGradient>
    </defs>
</svg>
